Images/svg/Polygon7.svg

<svg width="46" height="40" viewBox="0 0 46 40" fill="none" xmlns="http://www.w3.org/2000/svg">
<path opacity="0.15" d="M43.299 20.75L43.7321 20L43.299 19.25L33.799 2.79552L33.366 2.04552L32.5 2.04552L13.5 2.04552L12.634 2.04552L12.201 2.79552L2.70096 19.25L2.26795 20L2.70096 20.75L12.201 37.2045L12.634 37.9545H13.5L32.5 37.9545H33.366L33.799 37.2045L43.299 20.75Z" stroke="#00849C" stroke-width="3"/>
</svg>

<svg width="46" height="40" fill="none" xmlns="http://www.w3.org/2000/svg"><path opacity=".15" d="M43.299 20.75l.433-.75-.433-.75-9.5-16.454-.433-.75H12.634l-.433.75-9.5 16.454-.433.75.433.75 9.5 16.455.433.75h20.732l.433-.75 9.5-16.455z" stroke="#00849C" stroke-width="3"/></svg>
